X: 9
M:C|
L:1/8
K:G
u(d>.c)|\
v(B>.d)(g>.f) g2(d>.c) | "^SEGUE"B>dg>f g2d>c |\
 B>ba>g f>ed>^c | d>fa>g f>ed>c |
 g2 b2 g2:|
|:u(g>.a)|\
(b>.a)(b>.g) a2(e>.f) | "^SEGUE"g>fg>e d2d>B |\
 c>d"4"e>c B>cd>B | "4"A>^G"4"A>B "0"A2ug>a |
b>ab>g a2e>f | g>fg>e d2g>f | e>fg>e f>ga>f |\
 g2 b2 g2:|


